gruvbox_icons/symbolic/categories/emoji-objects-symbolic.svg

<svg xmlns="http://www.w3.org/2000/svg" width="16" height="16" version="1.1">
 <path style="fill:#cdd3e0" d="M 7.9960938 0 A 6.0132737 6.01 0 0 0 2.1230469 4.7773438 C 1.5937587 7.3113437 2.8119047 9.8125156 4.9960938 11.103516 L 4.9980469 12.001953 A 1.0005447 1 0 0 0 6 13 L 10.001953 13 A 1.0005447 1 0 0 0 11.001953 12.001953 L 11.005859 11.101562 C 13.190048 9.8085625 14.407241 7.3044844 13.876953 4.7714844 A 6.0122731 6.009 0 0 0 7.9980469 0 L 7.9960938 0 z M 7.9960938 2 C 9.8971288 2 11.527804 3.3216406 11.916016 5.1816406 A 3.9921734 3.99 0 0 1 9.6035156 9.6660156 A 1.0005447 1 0 0 0 9.0019531 10.580078 L 9.0019531 11 L 6.9980469 11 L 6.9980469 10.582031 A 1.0005447 1 0 0 0 6.3964844 9.6679688 A 3.995175 3.993 0 0 1 4.0800781 5.1835938 A 3.9921734 3.99 0 0 1 7.9960938 2 z M 6 14 L 6 15 C 6 15.554 6.446 16 7 16 L 9 16 C 9.554 16 10 15.554 10 15 L 10 14 L 6 14 z"/>
 <path opacity=".35" style="fill:#cdd3e0" d="M 6.9998468,6.0003943 A 0.49883538,0.49839022 0 0 0 6.6526575,6.8576254 l 0.9976707,0.9967804 a 0.49883538,0.49839022 0 0 0 0.7053532,0 L 9.3533522,6.8576254 A 0.49911295,0.49866755 0 1 0 8.6479989,6.1519048 L 8.0025059,6.7968218 7.3580107,6.1519048 A 0.49883538,0.49839022 0 0 0 6.9988492,6.0003943 Z"/>
</svg>

<?xml version="1.0" encoding="UTF-8"?>
<svg height="16px" viewBox="0 0 16 16" width="16px" xmlns="http://www.w3.org/2000/svg">
    <g fill="#2e3436">
        <path d="m 7.996094 0 c -2.832032 0 -5.289063 2 -5.871094 4.777344 c -0.527344 2.535156 0.691406 5.035156 2.875 6.328125 l 0.003906 0.898437 c 0 0.550782 0.445313 0.996094 1 0.996094 h 4 c 0.550782 0 0.996094 -0.445312 1 -0.996094 v -0.902344 c 2.183594 -1.292968 3.398438 -3.796874 2.871094 -6.328124 c -0.582031 -2.777344 -3.042969 -4.773438 -5.875 -4.773438 z m 0 2 c 1.902344 0 3.53125 1.320312 3.917968 3.183594 c 0.390626 1.859375 -0.570312 3.722656 -2.3125 4.484375 c -0.363281 0.15625 -0.597656 0.515625 -0.597656 0.914062 v 0.417969 h -2.003906 v -0.417969 c 0 -0.398437 -0.234375 -0.753906 -0.601562 -0.914062 c -1.738282 -0.761719 -2.703126 -2.625 -2.316407 -4.484375 c 0.390625 -1.859375 2.015625 -3.183594 3.914063 -3.183594 z m -1.996094 12 v 1 c 0 0.554688 0.449219 1 1 1 h 2 c 0.554688 0 1 -0.445312 1 -1 v -1 z m 0 0"/>
        <path d="m 6.648438 6.144531 c -0.195313 0.195313 -0.195313 0.515625 0 0.710938 l 1 1 c 0.191406 0.191406 0.511718 0.191406 0.707031 0 l 1 -1 c 0.191406 -0.195313 0.191406 -0.515625 0 -0.710938 c -0.195313 -0.191406 -0.515625 -0.191406 -0.707031 0 l -0.648438 0.648438 l -0.644531 -0.648438 c -0.195313 -0.191406 -0.515625 -0.191406 -0.707031 0 z m 0 0" fill-opacity="0.34902"/>
    </g>
</svg>
